images/ubt.svg

<svg height="250" viewBox="0 0 250 250" width="250" xmlns="http://www.w3.org/2000/svg" xmlns:xlink="http://www.w3.org/1999/xlink"><linearGradient id="a" gradientUnits="userSpaceOnUse" x1="7.6650400377" x2="245.872791" y1="243.81558809828" y2="5.6077864284"><stop offset="0" stop-color="#e71d73"/><stop offset=".3" stop-color="#2d2e83"/><stop offset=".64" stop-color="#00a19a"/><stop offset=".9" stop-color="#95c11f"/><stop offset="1" stop-color="#fcea10"/></linearGradient><path d="m245.871094 124.710938c0 65.78125-53.324219 119.105468-119.101563 119.105468-65.78125 0-119.105469-53.324218-119.105469-119.105468 0-65.777344 53.324219-119.105469 119.105469-119.105469 65.777344 0 119.101563 53.328125 119.101563 119.105469zm0 0" fill="url(#a)"/><g fill="#fff"><path d="m175.117188 65.792969-13.523438-13.605469h-43.660156v87.839844h-21.828125v-74.6875h-17.6875v78.851562l13.527343 13.539063h30.148438l13.136719-13.148438h26.363281l13.523438-13.539062v-27.804688l-4.796876-4.6875 4.796876-4.804687zm-39.5 4.097656h21.820312v19.6875h-21.820312zm21.898437 56.988281h-21.898437v-19.691406h21.898437zm0 0"/><path d="m61.371094 195.347656c-1.210938-1.25-1.820313-3.195312-1.820313-5.832031v-11.738281h2.734375v12.011718c0 1.78125.375 3.078126 1.125 3.890626.746094.816406 1.925782 1.222656 3.539063 1.222656 1.605469 0 2.785156-.40625 3.535156-1.222656.753906-.8125 1.128906-2.109376 1.125-3.890626v-12.011718h2.683594v11.738281c0 2.644531-.59375 4.59375-1.773438 5.839844-1.183593 1.25-3.039062 1.875-5.5625 1.878906-2.542969-.007813-4.40625-.636719-5.585937-1.886719zm0 0"/><path d="m90.546875 177.777344h2.613281v19.457031h-2.804687l-9.917969-15.210937v15.210937h-2.605469v-19.457031h2.808594l9.914063 15.210937zm0 0"/><path d="m97.289062 197.234375v-19.457031h2.945313v19.457031zm0 0"/><path d="m116.359375 188.761719c.675781.871093 1.019531 1.957031.972656 3.058593.039063 1.0625-.269531 2.113282-.871093 2.988282-.710938.882812-1.6875 1.515625-2.785157 1.808594-1.625.453124-3.3125.65625-5.003906.609374-1.636719-.003906-3.273437-.113281-4.898437-.320312v-18.578125c1.8125-.367187 3.65625-.554687 5.503906-.550781 2.605468 0 4.511718.417968 5.722656 1.261718 1.207031.839844 1.808594 2.128907 1.804688 3.875.027343.972657-.257813 1.929688-.8125 2.730469-.601563.796875-1.46875 1.347657-2.445313 1.550781 1.09375.167969 2.09375.722657 2.8125 1.566407zm-9.929687-8.621094v6.085937h3.4375c1.539062 0 2.648437-.261718 3.328124-.773437.347657-.289063.621094-.65625.792969-1.074219.175781-.417968.246094-.871094.210938-1.320312.03125-.644532-.128907-1.28125-.460938-1.832032-.371093-.5-.902343-.855468-1.503906-1.003906-.878906-.246094-1.796875-.359375-2.710937-.332031-1.035157-.007813-2.070313.074219-3.09375.25zm6.121093 14.628906c.679688-.167969 1.285157-.5625 1.710938-1.121093.363281-.574219.535156-1.25.5-1.929688.042969-.480469-.039063-.964844-.226563-1.40625-.191406-.445312-.488281-.835938-.863281-1.136719-.726563-.542969-1.875-.816406-3.449219-.816406h-3.808594v6.613281c.953126.121094 1.914063.175782 2.875.171875 1.097657.035157 2.199219-.089843 3.261719-.375zm0 0"/><path d="m131.972656 197.234375-5.652344-7.6875c-.171874 0-.4375 0-.792968 0-.710938 0-1.542969-.03125-2.5-.09375v7.765625h-2.746094v-18.882812c1.78125-.363282 3.589844-.550782 5.40625-.558594 2.632812 0 4.589844.476562 5.871094 1.425781 1.277344.949219 1.917968 2.421875 1.917968 4.414063.054688 1.28125-.34375 2.539062-1.132812 3.554687-.875.996094-2.050781 1.6875-3.347656 1.96875l6.027344 8.09375zm-8.945312-9.9375c.929687.078125 1.773437.117187 2.542968.117187 1.84375 0 3.203126-.304687 4.066407-.90625.863281-.605468 1.28125-1.566406 1.28125-2.863281.035156-.75-.140625-1.496093-.511719-2.152343-.378906-.578126-.949219-1.003907-1.609375-1.207032-.910156-.285156-1.867187-.417968-2.820313-.386718-.507812-.003907-1.019531.019531-1.527343.066406-.441407.039062-.917969.105468-1.421875.191406zm0 0"/><path d="m137.382812 197.234375v-19.457031h2.949219v19.457031zm0 0"/><path d="m158.019531 187.8125v9.035156c-1.480469.25-2.980469.378906-4.484375.386719-3.429687 0-5.996094-.785156-7.707031-2.351563-1.707031-1.570312-2.554687-4.007812-2.550781-7.308593 0-3.320313.851562-5.78125 2.550781-7.386719 1.703125-1.605469 4.152344-2.410156 7.351563-2.410156 1.46875 0 2.933593.179687 4.355468.535156v2.332031c-1.351562-.359375-2.746094-.542969-4.144531-.542969-1.367187-.046874-2.722656.210938-3.980469.742188-1.066406.5-1.925781 1.347656-2.433594 2.398438-.605468 1.371093-.890624 2.859374-.832031 4.355468-.054687 1.445313.21875 2.882813.800781 4.207032.496094 1.046874 1.34375 1.890624 2.398438 2.390624 1.257812.542969 2.625.804688 4 .753907.699219.003906 1.398438-.03125 2.09375-.105469v-7.023438zm0 0"/><path d="m161.554688 197.234375v-19.457031h2.824218v8.242187h9.691406v-8.242187h2.816407v19.457031h-2.816407v-8.722656h-9.691406v8.722656zm0 0"/><path d="m184.941406 197.234375v-17.078125h-6.285156v-2.378906h15.328125v2.378906h-6.296875v17.078125zm0 0"/></g></svg>

<svg xmlns="http://www.w3.org/2000/svg" xmlns:xlink="http://www.w3.org/1999/xlink" width="250px" height="250px" viewBox="0 0 250 250" version="1.1">
<defs>
<linearGradient id="linear0" gradientUnits="userSpaceOnUse" x1="12.9999" y1="413.510986" x2="417" y2="9.5108" gradientTransform="matrix(0.589623,0,0,0.589623,0,0)">
<stop offset="0" style="stop-color:rgb(90.588236%,11.372549%,45.09804%);stop-opacity:1;"/>
<stop offset="0.3" style="stop-color:rgb(17.647059%,18.039216%,51.372552%);stop-opacity:1;"/>
<stop offset="0.64" style="stop-color:rgb(0%,63.137257%,60.392159%);stop-opacity:1;"/>
<stop offset="0.9" style="stop-color:rgb(58.431375%,75.686276%,12.156863%);stop-opacity:1;"/>
<stop offset="1" style="stop-color:rgb(98.823529%,91.764706%,6.27451%);stop-opacity:1;"/>
</linearGradient>
</defs>
<g id="surface1">
<path style=" stroke:none;fill-rule:nonzero;fill:url(#linear0);" d="M 245.871094 124.710938 C 245.871094 190.492188 192.546875 243.816406 126.769531 243.816406 C 60.988281 243.816406 7.664062 190.492188 7.664062 124.710938 C 7.664062 58.933594 60.988281 5.605469 126.769531 5.605469 C 192.546875 5.605469 245.871094 58.933594 245.871094 124.710938 Z M 245.871094 124.710938 "/>
<path style=" stroke:none;fill-rule:nonzero;fill:rgb(100%,100%,100%);fill-opacity:1;" d="M 175.117188 65.792969 L 161.59375 52.1875 L 117.933594 52.1875 L 117.933594 140.027344 L 96.105469 140.027344 L 96.105469 65.339844 L 78.417969 65.339844 L 78.417969 144.191406 L 91.945312 157.730469 L 122.09375 157.730469 L 135.230469 144.582031 L 161.59375 144.582031 L 175.117188 131.042969 L 175.117188 103.238281 L 170.320312 98.550781 L 175.117188 93.746094 Z M 135.617188 69.890625 L 157.4375 69.890625 L 157.4375 89.578125 L 135.617188 89.578125 Z M 157.515625 126.878906 L 135.617188 126.878906 L 135.617188 107.1875 L 157.515625 107.1875 Z M 157.515625 126.878906 "/>
<path style=" stroke:none;fill-rule:nonzero;fill:rgb(100%,100%,100%);fill-opacity:1;" d="M 61.371094 195.347656 C 60.160156 194.097656 59.550781 192.152344 59.550781 189.515625 L 59.550781 177.777344 L 62.285156 177.777344 L 62.285156 189.789062 C 62.285156 191.570312 62.660156 192.867188 63.410156 193.679688 C 64.15625 194.496094 65.335938 194.902344 66.949219 194.902344 C 68.554688 194.902344 69.734375 194.496094 70.484375 193.679688 C 71.238281 192.867188 71.613281 191.570312 71.609375 189.789062 L 71.609375 177.777344 L 74.292969 177.777344 L 74.292969 189.515625 C 74.292969 192.160156 73.699219 194.109375 72.519531 195.355469 C 71.335938 196.605469 69.480469 197.230469 66.957031 197.234375 C 64.414062 197.226562 62.550781 196.597656 61.371094 195.347656 Z M 61.371094 195.347656 "/>
<path style=" stroke:none;fill-rule:nonzero;fill:rgb(100%,100%,100%);fill-opacity:1;" d="M 90.546875 177.777344 L 93.160156 177.777344 L 93.160156 197.234375 L 90.355469 197.234375 L 80.4375 182.023438 L 80.4375 197.234375 L 77.832031 197.234375 L 77.832031 177.777344 L 80.640625 177.777344 L 90.554688 192.988281 Z M 90.546875 177.777344 "/>
<path style=" stroke:none;fill-rule:nonzero;fill:rgb(100%,100%,100%);fill-opacity:1;" d="M 97.289062 197.234375 L 97.289062 177.777344 L 100.234375 177.777344 L 100.234375 197.234375 Z M 97.289062 197.234375 "/>
<path style=" stroke:none;fill-rule:nonzero;fill:rgb(100%,100%,100%);fill-opacity:1;" d="M 116.359375 188.761719 C 117.035156 189.632812 117.378906 190.71875 117.332031 191.820312 C 117.371094 192.882812 117.0625 193.933594 116.460938 194.808594 C 115.75 195.691406 114.773438 196.324219 113.675781 196.617188 C 112.050781 197.070312 110.363281 197.273438 108.671875 197.226562 C 107.035156 197.222656 105.398438 197.113281 103.773438 196.90625 L 103.773438 178.328125 C 105.585938 177.960938 107.429688 177.773438 109.277344 177.777344 C 111.882812 177.777344 113.789062 178.195312 115 179.039062 C 116.207031 179.878906 116.808594 181.167969 116.804688 182.914062 C 116.832031 183.886719 116.546875 184.84375 115.992188 185.644531 C 115.390625 186.441406 114.523438 186.992188 113.546875 187.195312 C 114.640625 187.363281 115.640625 187.917969 116.359375 188.761719 Z M 106.429688 180.140625 L 106.429688 186.226562 L 109.867188 186.226562 C 111.40625 186.226562 112.515625 185.964844 113.195312 185.453125 C 113.542969 185.164062 113.816406 184.796875 113.988281 184.378906 C 114.164062 183.960938 114.234375 183.507812 114.199219 183.058594 C 114.230469 182.414062 114.070312 181.777344 113.738281 181.226562 C 113.367188 180.726562 112.835938 180.371094 112.234375 180.222656 C 111.355469 179.976562 110.4375 179.863281 109.523438 179.890625 C 108.488281 179.882812 107.453125 179.964844 106.429688 180.140625 Z M 112.550781 194.769531 C 113.230469 194.601562 113.835938 194.207031 114.261719 193.648438 C 114.625 193.074219 114.796875 192.398438 114.761719 191.71875 C 114.804688 191.238281 114.722656 190.753906 114.535156 190.3125 C 114.34375 189.867188 114.046875 189.476562 113.671875 189.175781 C 112.945312 188.632812 111.796875 188.359375 110.222656 188.359375 L 106.414062 188.359375 L 106.414062 194.972656 C 107.367188 195.09375 108.328125 195.148438 109.289062 195.144531 C 110.386719 195.179688 111.488281 195.054688 112.550781 194.769531 Z M 112.550781 194.769531 "/>
<path style=" stroke:none;fill-rule:nonzero;fill:rgb(100%,100%,100%);fill-opacity:1;" d="M 131.972656 197.234375 L 126.320312 189.546875 C 126.148438 189.546875 125.882812 189.546875 125.527344 189.546875 C 124.816406 189.546875 123.984375 189.515625 123.027344 189.453125 L 123.027344 197.21875 L 120.28125 197.21875 L 120.28125 178.335938 C 122.0625 177.972656 123.871094 177.785156 125.6875 177.777344 C 128.320312 177.777344 130.277344 178.253906 131.558594 179.203125 C 132.835938 180.152344 133.476562 181.625 133.476562 183.617188 C 133.53125 184.898438 133.132812 186.15625 132.34375 187.171875 C 131.46875 188.167969 130.292969 188.859375 128.996094 189.140625 L 135.023438 197.234375 Z M 123.027344 187.296875 C 123.957031 187.375 124.800781 187.414062 125.570312 187.414062 C 127.414062 187.414062 128.773438 187.109375 129.636719 186.507812 C 130.5 185.902344 130.917969 184.941406 130.917969 183.644531 C 130.953125 182.894531 130.777344 182.148438 130.40625 181.492188 C 130.027344 180.914062 129.457031 180.488281 128.796875 180.285156 C 127.886719 180 126.929688 179.867188 125.976562 179.898438 C 125.46875 179.894531 124.957031 179.917969 124.449219 179.964844 C 124.007812 180.003906 123.53125 180.070312 123.027344 180.15625 Z M 123.027344 187.296875 "/>
<path style=" stroke:none;fill-rule:nonzero;fill:rgb(100%,100%,100%);fill-opacity:1;" d="M 137.382812 197.234375 L 137.382812 177.777344 L 140.332031 177.777344 L 140.332031 197.234375 Z M 137.382812 197.234375 "/>
<path style=" stroke:none;fill-rule:nonzero;fill:rgb(100%,100%,100%);fill-opacity:1;" d="M 158.019531 187.8125 L 158.019531 196.847656 C 156.539062 197.097656 155.039062 197.226562 153.535156 197.234375 C 150.105469 197.234375 147.539062 196.449219 145.828125 194.882812 C 144.121094 193.3125 143.273438 190.875 143.277344 187.574219 C 143.277344 184.253906 144.128906 181.792969 145.828125 180.1875 C 147.53125 178.582031 149.980469 177.777344 153.179688 177.777344 C 154.648438 177.777344 156.113281 177.957031 157.535156 178.3125 L 157.535156 180.644531 C 156.183594 180.285156 154.789062 180.101562 153.390625 180.101562 C 152.023438 180.054688 150.667969 180.3125 149.410156 180.84375 C 148.34375 181.34375 147.484375 182.191406 146.976562 183.242188 C 146.371094 184.613281 146.085938 186.101562 146.144531 187.597656 C 146.089844 189.042969 146.363281 190.480469 146.945312 191.804688 C 147.441406 192.851562 148.289062 193.695312 149.34375 194.195312 C 150.601562 194.738281 151.96875 195 153.34375 194.949219 C 154.042969 194.953125 154.742188 194.917969 155.4375 194.84375 L 155.4375 187.820312 Z M 158.019531 187.8125 "/>
<path style=" stroke:none;fill-rule:nonzero;fill:rgb(100%,100%,100%);fill-opacity:1;" d="M 161.554688 197.234375 L 161.554688 177.777344 L 164.378906 177.777344 L 164.378906 186.019531 L 174.070312 186.019531 L 174.070312 177.777344 L 176.886719 177.777344 L 176.886719 197.234375 L 174.070312 197.234375 L 174.070312 188.511719 L 164.378906 188.511719 L 164.378906 197.234375 Z M 161.554688 197.234375 "/>
<path style=" stroke:none;fill-rule:nonzero;fill:rgb(100%,100%,100%);fill-opacity:1;" d="M 184.941406 197.234375 L 184.941406 180.15625 L 178.65625 180.15625 L 178.65625 177.777344 L 193.984375 177.777344 L 193.984375 180.15625 L 187.6875 180.15625 L 187.6875 197.234375 Z M 184.941406 197.234375 "/>
</g>
</svg>
